X:1
T:John Connolly, The Irish Rebel
M:3/4
L:1/4
K:C
 C| C C C| E G G| c e d| d c z/2 G/2| A c A| G E C| D D E| D2 G/2G/2|\
 C C E| G G G/2G/2| c e d| d c G| A c A| G E C| D E D| C2||
